X:2
T:Troika de Bertrix
B:Invitation a la Waltze
O:Wallonie
M:2/4
L:1/8
Q:C8=30
P:ABBA
K:Bb
P:A
Fd Fd | dc/=B/ c2 | Fc Fc | cB/A/ GF |
Fd Fd | dc/=B/ c2 | c/=B/c/d/ f/e/d/c/ | BdB z :|
K:F
P:B
c/c/c A/A/A | G/G/G d2 | dE dE | F/E/F/G/ A2 |
c/c/c A/A/A | G/G/G d2 | dE c/B/A/G/ | FA F2 | F/G/A/B/ c/d/_e/=e/ | f2 F2 ||
